X: 1
T: Shalom Aleichem
C: words: prayer book
C: tune: trad Ashkenazi
D: Andy Statman & David Grisman "Songs of our Fathers"
B: Harvard Hillel Sabbath Songbook
Z: John Chambers <jc:trillian.mit.edu>
M: C
L: a/8
K: Am
[|"Am"E2 cB A2 AA | "E7"^GA BA (GF E2) | ^GG G2 "Am"(AG Ac) | "E7"B4 z4 |
w: Sha-lom a-le-chem mal'\-a che_ ha-sha-ret__ mal'-a-che el___ yon.
| "Am"(E2 cB) A2 AA | "E7"(^GA) BA (GF E2) | "Dm"DD A2 ^G2 (F{E}D) | "E7"E4 z4 |
